X: 39
M: 2/4
L: 1/16
K: D
V: 1
|: ABcd |\
efgf gfed |{d}c2BA GBAG | {G}F2ED gAfA | edcB ABcd |\
efgf gfed | {d}c2BA GBAG | FAde fdec | d4 :|
V: 2 clef=bass middle=d
d2a2 | f2d2 f2g2 | a4 e2g2 | f4 e2d2 |
z4 | A4 A4 | A2B2 c2A2 | d2f2 e2d2 |
a4 z4 | A4 A4 | A2B2 c2A2 |
d2fg a2A2 | d4 :|


